assets/companies/dark/nike.svg

<svg width="50" height="18" viewBox="0 0 50 18" fill="none" xmlns="http://www.w3.org/2000/svg">
<path d="M5.51537 17.9927C4.02558 17.9329 2.8067 17.5211 1.85365 16.7563C1.67176 16.6102 1.23834 16.1722 1.09293 15.9874C0.706453 15.4965 0.443698 15.0188 0.268443 14.4887C-0.270842 12.8571 0.0067091 10.716 1.06232 8.36618C1.96614 6.35445 3.36079 4.35921 5.79395 1.59583C6.15236 1.1892 7.21971 0 7.2266 0C7.22915 0 7.17098 0.101784 7.09777 0.22573C6.46512 1.29614 5.92379 2.55698 5.62889 3.64853C5.15517 5.39999 5.21231 6.90306 5.79624 8.06855C6.19905 8.87149 6.88961 9.56698 7.66614 9.95144C9.02557 10.6242 11.0159 10.6799 13.4465 10.1143C13.6138 10.0751 21.9062 7.85158 31.874 5.17297C41.8418 2.4941 49.9987 0.304065 50 0.305868C50.0028 0.308191 26.8419 10.3192 14.8187 15.5127C12.9146 16.335 12.4054 16.5427 11.5103 16.8602C9.222 17.6719 7.17226 18.0592 5.51537 17.9927Z" fill="#9A9CAC"/>
</svg>

<svg xmlns="http://www.w3.org/2000/svg" width="50" height="18" fill="none" viewBox="0 0 50 18"><path fill="#9A9CAC" d="M5.515 17.993q-2.233-.09-3.661-1.237a7 7 0 0 1-.761-.769 4.8 4.8 0 0 1-.825-1.498c-.539-1.632-.261-3.773.794-6.123.904-2.012 2.299-4.007 4.732-6.77A138 138 0 0 1 7.227 0c.002 0-.056.102-.13.226-.632 1.07-1.173 2.331-1.468 3.423-.474 1.751-.417 3.254.167 4.42.403.802 1.094 1.498 1.87 1.882 1.36.673 3.35.729 5.78.163.168-.039 8.46-2.262 18.428-4.941S49.999.304 50 .306c.003.002-23.158 10.013-35.181 15.207-1.904.822-2.414 1.03-3.309 1.347-2.288.812-4.338 1.2-5.995 1.133"/></svg>
